Simply-Blue-Circles/symbolic/categories/applications-accessories-symbolic.svg

<svg xmlns="http://www.w3.org/2000/svg" width="24" height="24" viewBox="0 0 6.35 6.35"><path d="M2.419.996a.697.697 0 1 0 .286 1.331l2.153 2.155h.175v-.524l-1.22-1.22.411-.41a.693.693 0 0 0 .983-.635.696.696 0 1 0-1.331.286l-.411.411-.412-.411a.696.696 0 0 0-.634-.983zm0 .348a.348.348 0 1 1 0 .696.348.348 0 0 1 0-.696zm2.091 0a.348.348 0 1 1 0 .696.348.348 0 0 1 0-.696zM1.1 2.366v2.793h2.793L2.73 3.996h-.014l-.365.365.238.24h-.931v-.932l.166.165.362-.364.002-.005.002-.01v-.007zm2.365.286c.048 0 .087.04.087.087a.087.087 0 0 1-.175 0c0-.048.04-.087.088-.087zm-.524.26L1.896 3.959v.523h.174l1.22-1.22z" fill="gray"/></svg>

<?xml version="1.0" encoding="UTF-8" standalone="no"?>
<svg
   xmlns:dc="http://purl.org/dc/elements/1.1/"
   xmlns:cc="http://creativecommons.org/ns#"
   xmlns:rdf="http://www.w3.org/1999/02/22-rdf-syntax-ns#"
   xmlns:svg="http://www.w3.org/2000/svg"
   xmlns="http://www.w3.org/2000/svg"
   xmlns:sodipodi="http://sodipodi.sourceforge.net/DTD/sodipodi-0.dtd"
   xmlns:inkscape="http://www.inkscape.org/namespaces/inkscape"
   width="24"
   height="24"
   viewBox="0 0 6.35 6.35"
   version="1.1"
   id="svg4"
   sodipodi:docname="applications-accessories-symbolic.svg"
   inkscape:version="0.92.4 (5da689c313, 2019-01-14)">
  <metadata
     id="metadata10">
    <rdf:RDF>
      <cc:Work
         rdf:about="">
        <dc:format>image/svg+xml</dc:format>
        <dc:type
           rdf:resource="http://purl.org/dc/dcmitype/StillImage" />
        <dc:title></dc:title>
      </cc:Work>
    </rdf:RDF>
  </metadata>
  <defs
     id="defs8" />
  <sodipodi:namedview
     pagecolor="#ffffff"
     bordercolor="#666666"
     borderopacity="1"
     objecttolerance="10"
     gridtolerance="10"
     guidetolerance="10"
     inkscape:pageopacity="0"
     inkscape:pageshadow="2"
     inkscape:window-width="1085"
     inkscape:window-height="480"
     id="namedview6"
     showgrid="false"
     inkscape:zoom="9.8333333"
     inkscape:cx="1.0677966"
     inkscape:cy="12"
     inkscape:window-x="0"
     inkscape:window-y="25"
     inkscape:window-maximized="0"
     inkscape:current-layer="svg4" />
  <path
     d="M 2.419,0.996 A 0.697,0.697 0 1 0 2.705,2.327 L 4.858,4.482 H 5.033 V 3.958 L 3.813,2.738 4.224,2.328 A 0.693,0.693 0 0 0 5.207,1.693 0.696,0.696 0 1 0 3.876,1.979 L 3.465,2.39 3.053,1.979 A 0.696,0.696 0 0 0 2.419,0.996 Z m 0,0.348 a 0.348,0.348 0 1 1 0,0.696 0.348,0.348 0 0 1 0,-0.696 z m 2.091,0 a 0.348,0.348 0 1 1 0,0.696 0.348,0.348 0 0 1 0,-0.696 z M 1.1,2.366 V 5.159 H 3.893 L 2.73,3.996 H 2.716 L 2.351,4.361 2.589,4.601 H 1.658 V 3.669 L 1.824,3.834 2.186,3.47 2.188,3.465 2.19,3.455 V 3.448 Z m 2.365,0.286 c 0.048,0 0.087,0.04 0.087,0.087 a 0.0875,0.0875 0 0 1 -0.175,0 c 0,-0.048 0.04,-0.087 0.088,-0.087 z M 2.941,2.912 1.896,3.959 V 4.482 H 2.07 l 1.22,-1.22 z"
     id="path2"
     inkscape:connector-curvature="0"
     style="fill:#808080" />
</svg>
